X: 100393
T: RAINBOW; OR, MIDNIGHT SCHOTTISCHE
R: shottish
B: K\"ohler's Violin Repository, v.3, 1885 p.256 #2
F: http://www.archive.org/details/klersviolinrepos03rugg
Z: 2012 John Chambers <jc:trillian.mit.edu>
M: 2/4
L: 1/16
K: C
|:\
vc'2e>f g2c>d | e>(Bc)>A G4 | G>AB>c d>ef>g | a2g>^f g4 |\
c'2e>f g2c>d | e>(Bc)>A G4 | G>AB>c d>ef>g | c2{d'/}c'>b c'2z2 :|
|:\
vA2{B/}A^G (AB)cd | e2{f/}e^d e2a2 | (e2a2)e2d2 | cdcB A2E2 |\
A2{B/}A^G (AB)cd | e2{f/}e^d (e2a2) | e2(de) (ce)(Be) | [1A2z2 va2z2 !segno!:|[2 A2z2 Tvb4{a/b/} "^D.C."||
|:[K:F]\
vf2(fa) cfAc | FAcf a4 | g2gb egce | Gceg b4 |\
f2fa cfac | FAcf a3f | efga bcde | [f2A2][a2c2][f2A2] z2 :|

%%sep 2 1 500

